src/assets/Filter.svg

<svg width="18" height="14" viewBox="0 0 18 14" fill="none" xmlns="http://www.w3.org/2000/svg">
<path fill-rule="evenodd" clip-rule="evenodd" d="M5.04688 12.3761C5.04688 11.7908 5.5213 11.3164 6.10653 11.3164H12.3856C12.9709 11.3164 13.4453 11.7908 13.4453 12.3761C13.4453 12.9613 12.9709 13.4357 12.3856 13.4357H6.10653C5.5213 13.4357 5.04688 12.9613 5.04688 12.3761Z" fill="#717171"/>
<path fill-rule="evenodd" clip-rule="evenodd" d="M3.59473 6.97079C3.59473 6.38556 4.06915 5.91113 4.65438 5.91113H13.838C14.4233 5.91113 14.8977 6.38556 14.8977 6.97079C14.8977 7.55602 14.4233 8.03044 13.838 8.03044H4.65438C4.06915 8.03044 3.59473 7.55602 3.59473 6.97079Z" fill="#717171"/>
<path fill-rule="evenodd" clip-rule="evenodd" d="M0.769043 1.62411C0.769043 1.03888 1.24347 0.564453 1.8287 0.564453H16.6638C17.2491 0.564453 17.7235 1.03888 17.7235 1.62411C17.7235 2.20934 17.2491 2.68376 16.6638 2.68376H1.8287C1.24347 2.68376 0.769043 2.20934 0.769043 1.62411Z" fill="#717171"/>
</svg>

<svg xmlns="http://www.w3.org/2000/svg" width="18" height="14" fill="none"><path fill="#717171" fill-rule="evenodd" d="M5.047 12.376c0-.585.474-1.06 1.06-1.06h6.279a1.06 1.06 0 1 1 0 2.12h-6.28a1.06 1.06 0 0 1-1.06-1.06M3.595 6.97c0-.584.474-1.059 1.06-1.059h9.183a1.06 1.06 0 1 1 0 2.12H4.654a1.06 1.06 0 0 1-1.06-1.06M.769 1.624c0-.585.474-1.06 1.06-1.06h14.835a1.06 1.06 0 1 1 0 2.12H1.829a1.06 1.06 0 0 1-1.06-1.06" clip-rule="evenodd"/></svg>
